src/bright/hiso font bright_p11-phone reversed.svg

<svg xmlns="http://www.w3.org/2000/svg" width="117" height="126" viewBox="0 0 117 126"><path fill="#000101" d="M45 22.5l-27 13.5v27l-9-4.5-9 4.5v18l72 36 27-13.5v-54l-54-27zm0 3.361l48.93 24.469-23.639 11.82-48.931-24.47 23.64-11.819zm-19 23.089l16 8v36.11l-16-8v-36.11zm28.33 24.52l-6.33-3.16v-10.36l6.33 3.17v10.35zm0 3.36v8.68l-6.33-3.16v-8.68l6.33 3.16zm-6.33 8.87l6.33 3.161v10.369l-6.33-3.17v-10.36zm16 18.36l-6.67-3.33v-10.369l6.67 3.339v10.36zm0-13.71l-6.67-3.34v-8.68l6.67 3.34v8.68zm-6.67-15.38v-10.35l6.67 3.33v10.36l-6.67-3.34zm-39.33-2.97l-14.62-7.31 5.63-2.83 8.99 4.49v5.65zm78 29.65l-24 12v-49l24-12v49z"/></svg>

<svg xmlns="http://www.w3.org/2000/svg" width="117" height="126"><path fill="#000101" d="M45 22.5L18 36v27l-9-4.5L0 63v18l72 36 27-13.5v-54l-54-27zm0 3.361L93.93 50.33 70.291 62.15 21.36 37.68 45 25.861zM26 48.95l16 8v36.11l-16-8V48.95zm28.33 24.52L48 70.31V59.95l6.33 3.17v10.35zm0 3.36v8.68L48 82.35v-8.68l6.33 3.16zM48 85.7l6.33 3.161V99.23L48 96.06V85.7zm16 18.36l-6.67-3.33V90.361L64 93.7v10.36zm0-13.71l-6.67-3.34v-8.68L64 81.67v8.68zm-6.67-15.38V64.62L64 67.95v10.36l-6.67-3.34zM18 72L3.38 64.69l5.63-2.83L18 66.35V72zm78 29.65l-24 12v-49l24-12v49z"/></svg>
